;FLAVOR:Marlin
;TIME:916
;Filament used: 0.600134m
;Layer height: 0.28
;MINX:86.617
;MINY:89.206
;MINZ:0.28
;MAXX:133.383
;MAXY:130.793
;MAXZ:11.76
;Generated with Cura_SteamEngine 4.2.1
M140 S50
M105
M190 S50
M104 S200
M105
M109 S200
M82 ;absolute extrusion mode
M201 X500.00 Y500.00 Z100.00 E5000.00 ;Setup machine max acceleration
M203 X500.00 Y500.00 Z10.00 E50.00 ;Setup machine max feedrate
M204 P500.00 R1000.00 T500.00 ;Setup Print/Retract/Travel acceleration
M205 X8.00 Y8.00 Z0.40 E5.00 ;Setup Jerk
M220 S100 ;Reset Feedrate
M221 S100 ;Reset Flowrate

G28 ;Home

G92 E0 ;Reset Extruder
G1 Z2.0 F3000 ;Move Z Axis up
G1 X10.1 Y20 Z0.28 F5000.0 ;Move to start position
G1 X10.1 Y200.0 Z0.28 F1500.0 E15 ;Draw the first line
G1 X10.4 Y200.0 Z0.28 F5000.0 ;Move to side a little
G1 X10.4 Y20 Z0.28 F1500.0 E30 ;Draw the second line
G92 E0 ;Reset Extruder
G1 Z2.0 F3000 ;Move Z Axis up

M141 S28
G92 E0
G92 E0
G1 F2700 E-5
;LAYER_COUNT:42
;LAYER:0
M107
G0 F6000 X92.023 Y92.285 Z0.28
;TYPE:SKIRT
G1 F2700 E0
G1 F1200 X92.756 Y91.664 E0.04921
G1 X93.538 Y91.107 E0.09838
G1 X94.364 Y90.616 E0.1476
G1 X95.228 Y90.196 E0.19681
G1 X96.124 Y89.849 E0.24602
G1 X97.046 Y89.578 E0.29525
G1 X97.987 Y89.385 E0.34445
G1 X98.866 Y89.276 E0.38982
G1 X99.197 Y89.248 E0.40683
G1 X100.17 Y89.207 E0.45671
G1 X100.773 Y89.207 E0.4876
G1 X100.939 Y89.208 E0.4961
G1 X101.636 Y89.218 E0.53181
G1 X102.289 Y89.246 E0.56528
G1 X104.173 Y89.38 E0.66203
G1 X106.678 Y89.51 E0.79051
G1 X109.207 Y89.57 E0.92008
G1 X111.699 Y89.56 E1.04772
G1 X114.178 Y89.478 E1.17477
G1 X117.769 Y89.241 E1.3591
G1 X118.201 Y89.221 E1.38125
G1 X118.517 Y89.212 E1.39745
G1 X118.827 Y89.207 E1.41333
G1 X119.438 Y89.206 E1.44462
G1 X119.625 Y89.207 E1.4542
G1 X120.31 Y89.217 E1.48929
G1 X121.27 Y89.271 E1.53854
G1 X122.221 Y89.405 E1.58773
G1 X123.158 Y89.617 E1.63694
G1 X124.074 Y89.906 E1.68614
G1 X124.962 Y90.271 E1.73531
G1 X125.818 Y90.708 E1.78454
G1 X126.634 Y91.215 E1.83375
G1 X127.405 Y91.788 E1.88295
G1 X128.126 Y92.423 E1.93216
G1 X128.791 Y93.116 E1.98136
G1 X129.396 Y93.862 E2.03055
G1 X129.938 Y94.656 E2.07979
G1 X130.411 Y95.491 E2.12895
G1 X130.701 Y96.101 E2.16354
G1 X131.794 Y98.581 E2.30236
G1 X132.337 Y99.78 E2.36978
G1 X132.697 Y100.671 E2.419
G1 X132.981 Y101.589 E2.46822
G1 X133.188 Y102.527 E2.51742
G1 X133.349 Y103.94 E2.59026
G1 X133.367 Y104.285 E2.60796
G1 X133.383 Y104.888 E2.63886
G1 X133.381 Y117.29 E3.27409
G1 X133.38 Y117.444 E3.28198
G1 X133.373 Y117.961 E3.30847
G1 X133.339 Y118.697 E3.3462
G1 X133.262 Y119.69 E3.39722
G1 X133.226 Y120.072 E3.41687
G1 X133.193 Y120.369 E3.43218
G1 X133.048 Y121.319 E3.4814
G1 X132.864 Y122.106 E3.5228
G1 X132.824 Y122.254 E3.53065
G1 X132.535 Y123.17 E3.57985
G1 X132.171 Y124.059 E3.62905
G1 X131.734 Y124.914 E3.67824
G1 X131.228 Y125.731 E3.72746
G1 X130.655 Y126.502 E3.77666
G1 X130.02 Y127.223 E3.82587
G1 X129.328 Y127.889 E3.87507
G1 X128.582 Y128.494 E3.92426
G1 X127.789 Y129.036 E3.97346
G1 X126.953 Y129.51 E4.02269
G1 X126.081 Y129.913 E4.07189
G1 X125.178 Y130.241 E4.1211
G1 X124.251 Y130.494 E4.17032
G1 X123.307 Y130.668 E4.21948
G1 X122.077 Y130.776 E4.28273
G1 X121.813 Y130.785 E4.29626
G1 X121.453 Y130.792 E4.3147
G1 X121.102 Y130.793 E4.33268
G1 X120.921 Y130.792 E4.34195
G1 X120.221 Y130.783 E4.37781
G1 X119.26 Y130.731 E4.4271
G1 X118.716 Y130.678 E4.4551
G1 X116.211 Y130.468 E4.58386
G1 X113.708 Y130.328 E4.71226
G1 X111.181 Y130.258 E4.84175
G1 X108.688 Y130.26 E4.96944
G1 X106.196 Y130.332 E5.09713
G1 X103.718 Y130.474 E5.22427
G1 X102.091 Y130.624 E5.30796
G1 X101.944 Y130.637 E5.31552
G1 X100.553 Y130.747 E5.38699
G1 X99.98 Y130.778 E5.41638
G1 X99.638 Y130.788 E5.4339
G1 X99.301 Y130.793 E5.45117
G1 X99.008 Y130.793 E5.46617
G1 X98.86 Y130.792 E5.47375
G1 X98.159 Y130.783 E5.50966
G1 X97.2 Y130.731 E5.55886
G1 X96.248 Y130.599 E5.60808
G1 X95.311 Y130.388 E5.65728
G1 X94.394 Y130.1 E5.70651
G1 X93.505 Y129.737 E5.7557
G1 X92.649 Y129.302 E5.80488
G1 X91.832 Y128.796 E5.8541
G1 X91.06 Y128.225 E5.90328
G1 X90.338 Y127.591 E5.9525
G1 X89.672 Y126.899 E6.00169
G1 X89.065 Y126.154 E6.05091
G1 X88.522 Y125.362 E6.1001
G1 X88.047 Y124.527 E6.14931
G1 X87.643 Y123.655 E6.19853
G1 X87.313 Y122.753 E6.24773
G1 X87.06 Y121.826 E6.29694
G1 X86.854 Y120.662 E6.35749
G1 X86.752 Y119.838 E6.40002
G1 X86.707 Y119.406 E6.42227
G1 X86.686 Y119.161 E6.43486
G1 X86.646 Y118.409 E6.47343
G1 X86.621 Y117.174 E6.5367
G1 X86.619 Y116.942 E6.54859
G1 X86.617 Y105.274 E7.14623
G1 X86.618 Y105.108 E7.15473
G1 X86.628 Y104.403 E7.19085
G1 X86.682 Y103.444 E7.24005
G1 X86.815 Y102.493 E7.28923
G1 X87.027 Y101.556 E7.33844
G1 X87.316 Y100.64 E7.38764
G1 X87.555 Y100.033 E7.42105
G1 X87.69 Y99.717 E7.43865
G1 X87.782 Y99.508 E7.45035
G1 X88.618 Y97.654 E7.55452
G1 X88.747 Y97.346 E7.57162
G1 X88.808 Y97.203 E7.57958
G1 X89.257 Y96.171 E7.63723
G1 X89.677 Y95.307 E7.68644
G1 X90.167 Y94.481 E7.73563
G1 X90.724 Y93.698 E7.78485
G1 X91.344 Y92.964 E7.83406
G1 X92.023 Y92.285 E7.88324
G0 F6000 X92.388 Y92.547
G1 F1200 X93.112 Y91.945 E7.93147
G1 X93.885 Y91.407 E7.97971
G1 X94.701 Y90.936 E8.02797
G1 X95.554 Y90.535 E8.07625
G1 X96.438 Y90.209 E8.12451
G1 X97.346 Y89.959 E8.17275
G1 X98.272 Y89.786 E8.221
G1 X98.903 Y89.715 E8.25352
G1 X99.234 Y89.687 E8.27054
G1 X100.17 Y89.647 E8.31852
G1 X100.773 Y89.647 E8.34941
G1 X100.932 Y89.648 E8.35755
G1 X101.629 Y89.658 E8.39326
G1 X102.258 Y89.685 E8.42551
G1 X104.12 Y89.817 E8.52112
G1 X106.679 Y89.951 E8.65237
G1 X109.199 Y90.01 E8.78148
G1 X111.714 Y90 E8.9103
G1 X114.192 Y89.918 E9.0373
G1 X117.798 Y89.68 E9.2224
G1 X118.214 Y89.66 E9.24373
G1 X118.53 Y89.651 E9.25993
G1 X118.828 Y89.647 E9.27519
G1 X119.439 Y89.646 E9.30649
G1 X119.619 Y89.647 E9.31571
G1 X120.304 Y89.657 E9.3508
G1 X121.245 Y89.711 E9.39907
G1 X122.177 Y89.844 E9.4473
G1 X123.095 Y90.056 E9.49555
G1 X123.992 Y90.345 E9.54382
G1 X124.861 Y90.709 E9.59208
G1 X125.696 Y91.145 E9.64033
G1 X126.491 Y91.651 E9.6886
G1 X127.24 Y92.222 E9.73684
G1 X127.938 Y92.855 E9.78511
G1 X128.58 Y93.544 E9.83334
G1 X129.161 Y94.286 E9.88161
G1 X129.677 Y95.074 E9.92986
G1 X130.299 Y96.278 E9.99927
G1 X131.439 Y98.864 E10.14403
G1 X131.936 Y99.962 E10.20576
G1 X132.288 Y100.836 E10.25402
G1 X132.565 Y101.736 E10.30225
G1 X132.764 Y102.657 E10.35052
G1 X132.91 Y103.963 E10.41783
G1 X132.928 Y104.308 E10.43552
G1 X132.943 Y104.888 E10.46524
G1 X132.941 Y117.29 E11.10048
G1 X132.94 Y117.438 E11.10806
G1 X132.933 Y117.955 E11.13454
G1 X132.901 Y118.663 E11.17084
G1 X132.824 Y119.656 E11.22186
G1 X132.789 Y120.024 E11.24079
G1 X132.756 Y120.321 E11.2561
G1 X132.612 Y121.252 E11.30435
G1 X132.44 Y121.991 E11.34322
G1 X132.4 Y122.139 E11.35107
G1 X132.115 Y123.037 E11.39933
G1 X131.756 Y123.908 E11.44758
G1 X131.324 Y124.746 E11.49587
G1 X130.823 Y125.543 E11.54409
G1 X130.256 Y126.295 E11.59233
G1 X129.627 Y126.997 E11.64061
G1 X128.941 Y127.643 E11.68887
G1 X128.202 Y128.228 E11.73715
G1 X127.417 Y128.748 E11.78538
G1 X126.59 Y129.2 E11.83365
G1 X125.728 Y129.58 E11.8819
G1 X124.837 Y129.886 E11.93016
G1 X123.923 Y130.115 E11.97842
G1 X122.993 Y130.266 E12.02668
G1 X122.062 Y130.337 E12.0745
G1 X121.798 Y130.346 E12.08803
G1 X121.452 Y130.352 E12.10576
G1 X121.101 Y130.353 E12.12374
G1 X120.926 Y130.352 E12.1327
G1 X120.226 Y130.343 E12.16856
G1 X119.302 Y130.293 E12.21596
G1 X118.792 Y130.244 E12.2422
G1 X116.237 Y130.029 E12.37353
G1 X113.71 Y129.888 E12.50317
G1 X111.193 Y129.818 E12.63214
G1 X108.675 Y129.82 E12.76111
G1 X106.194 Y129.892 E12.88824
G1 X103.682 Y130.036 E13.01712
G1 X102.051 Y130.186 E13.10101
G1 X101.909 Y130.198 E13.10831
G1 X100.518 Y130.308 E13.17978
G1 X99.967 Y130.338 E13.20805
G1 X99.625 Y130.348 E13.22557
G1 X99.301 Y130.353 E13.24217
G1 X99.008 Y130.353 E13.25718
G1 X98.866 Y130.352 E13.26445
G1 X98.165 Y130.343 E13.30036
G1 X97.224 Y130.291 E13.34863
G1 X96.291 Y130.159 E13.3969
G1 X95.373 Y129.949 E13.44513
G1 X94.475 Y129.662 E13.49342
G1 X93.606 Y129.299 E13.54166
G1 X92.77 Y128.864 E13.58993
G1 X91.974 Y128.36 E13.63819
G1 X91.224 Y127.79 E13.68644
G1 X90.525 Y127.159 E13.73467
G1 X89.882 Y126.47 E13.78294
G1 X89.299 Y125.73 E13.8312
G1 X88.782 Y124.943 E13.87943
G1 X88.333 Y124.114 E13.92772
G1 X87.956 Y123.251 E13.97595
G1 X87.653 Y122.359 E14.02421
G1 X87.427 Y121.444 E14.07248
G1 X87.291 Y120.608 E14.11586
G1 X87.189 Y119.784 E14.15839
G1 X87.146 Y119.368 E14.17981
G1 X87.125 Y119.123 E14.19241
G1 X87.086 Y118.4 E14.2295
G1 X87.061 Y117.165 E14.29277
G1 X87.059 Y116.942 E14.30419
G1 X87.057 Y105.274 E14.90183
G1 X87.058 Y105.115 E14.90997
G1 X87.068 Y104.41 E14.94609
G1 X87.121 Y103.469 E14.99436
G1 X87.254 Y102.536 E15.04264
G1 X87.466 Y101.618 E15.09089
G1 X87.754 Y100.721 E15.13915
G1 X87.959 Y100.206 E15.16754
G1 X88.094 Y99.89 E15.18514
G1 X88.183 Y99.689 E15.1964
G1 X89.024 Y97.823 E15.30124
G1 X89.153 Y97.516 E15.31829
G1 X89.212 Y97.379 E15.32593
G1 X89.661 Y96.347 E15.38358
G1 X90.073 Y95.499 E15.43187
G1 X90.555 Y94.69 E15.4801
G1 X91.105 Y93.925 E15.52836
G1 X91.717 Y93.209 E15.57661
G1 X92.388 Y92.547 E15.62489
G0 F6000 X92.752 Y92.812
G1 F1200 X93.468 Y92.228 E15.67222
G1 X94.231 Y91.709 E15.71948
G1 X95.037 Y91.258 E15.76679
G1 X95.878 Y90.878 E15.81406
G1 X96.749 Y90.573 E15.86133
G1 X97.644 Y90.343 E15.90866
G1 X98.94 Y90.153 E15.97575
G1 X99.271 Y90.125 E15.99277
G1 X100.17 Y90.087 E16.03885
G1 X100.773 Y90.087 E16.06974
G1 X100.926 Y90.088 E16.07758
G1 X101.623 Y90.098 E16.11328
G1 X102.226 Y90.124 E16.1442
G1 X104.064 Y90.255 E16.23858
G1 X106.681 Y90.391 E16.3728
G1 X109.19 Y90.45 E16.50135
G1 X111.731 Y90.44 E16.6315
G1 X114.205 Y90.358 E16.75829
G1 X117.827 Y90.119 E16.94422
G1 X118.227 Y90.1 E16.96473
G1 X118.543 Y90.091 E16.98092
G1 X118.829 Y90.087 E16.99557
G1 X119.44 Y90.086 E17.02687
G1 X119.613 Y90.087 E17.03573
G1 X120.298 Y90.097 E17.07082
G1 X121.219 Y90.151 E17.11807
G1 X122.133 Y90.284 E17.16538
G1 X123.032 Y90.495 E17.21268
G1 X123.909 Y90.784 E17.25998
G1 X124.757 Y91.147 E17.30723
G1 X125.572 Y91.582 E17.35454
G1 X126.345 Y92.087 E17.40184
G1 X127.072 Y92.656 E17.44913
G1 X127.747 Y93.286 E17.49642
G1 X128.365 Y93.972 E17.54371
G1 X128.921 Y94.709 E17.591
G1 X129.411 Y95.491 E17.63827
G1 X129.896 Y96.456 E17.69359
G1 X130.993 Y98.944 E17.83286
G1 X131.536 Y100.143 E17.90028
G1 X131.88 Y101 E17.94758
G1 X132.148 Y101.883 E17.99484
G1 X132.34 Y102.787 E18.04218
G1 X132.471 Y103.986 E18.10396
G1 X132.489 Y104.331 E18.12165
G1 X132.503 Y104.888 E18.15019
G1 X132.501 Y117.29 E18.78543
G1 X132.5 Y117.432 E18.7927
G1 X132.493 Y117.949 E18.81919
G1 X132.462 Y118.629 E18.85405
G1 X132.385 Y119.622 E18.90507
G1 X132.352 Y119.975 E18.92323
G1 X132.319 Y120.272 E18.93853
G1 X132.177 Y121.185 E18.98586
G1 X132.015 Y121.876 E19.02221
G1 X131.975 Y122.024 E19.03007
G1 X131.696 Y122.904 E19.07735
G1 X131.341 Y123.757 E19.12468
G1 X130.914 Y124.576 E19.17199
G1 X130.418 Y125.354 E19.21924
G1 X129.857 Y126.087 E19.26652
G1 X129.234 Y126.769 E19.31384
G1 X128.554 Y127.394 E19.36114
G1 X127.823 Y127.958 E19.40843
G1 X127.046 Y128.456 E19.45571
G1 X126.229 Y128.886 E19.503
G1 X125.378 Y129.243 E19.55026
G1 X124.499 Y129.525 E19.59755
G1 X123.598 Y129.73 E19.64488
G1 X122.684 Y129.856 E19.69214
G1 X122.047 Y129.897 E19.72483
G1 X121.783 Y129.906 E19.73836
G1 X121.45 Y129.912 E19.75542
G1 X121.099 Y129.913 E19.7734
G1 X120.932 Y129.912 E19.78195
G1 X120.232 Y129.903 E19.81781
G1 X119.345 Y129.855 E19.86331
G1 X118.875 Y129.81 E19.88749
G1 X116.226 Y129.587 E20.02366
G1 X113.748 Y129.448 E20.15078
G1 X111.205 Y129.378 E20.28108
G1 X108.697 Y129.38 E20.40954
G1 X106.156 Y129.454 E20.53975
G1 X103.646 Y129.598 E20.66853
G1 X102.011 Y129.748 E20.75262
G1 X101.874 Y129.76 E20.75967
G1 X100.483 Y129.87 E20.83114
G1 X99.955 Y129.898 E20.85822
G1 X99.613 Y129.908 E20.87575
G1 X99.301 Y129.913 E20.89173
G1 X99.008 Y129.913 E20.90674
G1 X98.871 Y129.912 E20.91375
G1 X98.17 Y129.903 E20.94966
G1 X97.248 Y129.851 E20.99696
G1 X96.334 Y129.72 E21.04426
G1 X95.435 Y129.51 E21.09154
G1 X94.558 Y129.223 E21.13881
G1 X93.709 Y128.861 E21.18608
G1 X92.894 Y128.427 E21.23338
G1 X92.119 Y127.924 E21.2807
G1 X91.391 Y127.356 E21.328
G1 X90.715 Y126.728 E21.37526
G1 X90.096 Y126.043 E21.42255
G1 X89.539 Y125.307 E21.46982
G1 X89.047 Y124.525 E21.51715
G1 X88.625 Y123.704 E21.56443
G1 X88.275 Y122.85 E21.6117
G1 X88.001 Y121.968 E21.65901
G1 X87.804 Y121.066 E21.7063
G1 X87.728 Y120.554 E21.73281
G1 X87.626 Y119.73 E21.77534
G1 X87.584 Y119.33 E21.79594
G1 X87.563 Y119.085 E21.80853
G1 X87.526 Y118.391 E21.84413
G1 X87.501 Y117.156 E21.9074
G1 X87.499 Y116.942 E21.91836
G1 X87.497 Y105.274 E22.51601
G1 X87.498 Y105.121 E22.52384
G1 X87.508 Y104.416 E22.55996
G1 X87.561 Y103.494 E22.60726
G1 X87.694 Y102.58 E22.65457
G1 X87.905 Y101.682 E22.70182
G1 X88.364 Y100.379 E22.77258
G1 X88.499 Y100.063 E22.79018
G1 X88.584 Y99.869 E22.80103
G1 X89.437 Y97.978 E22.90728
G1 X89.559 Y97.686 E22.92349
G1 X89.615 Y97.554 E22.93084
G1 X90.064 Y96.522 E22.98848
G1 X90.469 Y95.692 E23.03579
G1 X90.944 Y94.901 E23.08305
G1 X91.485 Y94.153 E23.13033
G1 X92.09 Y93.455 E23.17764
G1 X92.752 Y92.812 E23.22491
G0 F6000 X93.115 Y93.078
G1 F1200 X93.822 Y92.514 E23.27124
G1 X94.575 Y92.015 E23.31751
G1 X95.37 Y91.584 E23.36383
G1 X96.2 Y91.225 E23.41015
G1 X97.058 Y90.941 E23.45644
G1 X97.938 Y90.733 E23.50275
G1 X98.978 Y90.591 E23.55652
G1 X99.309 Y90.563 E23.57353
G1 X100.17 Y90.527 E23.61767
G1 X100.773 Y90.527 E23.64856
G1 X100.92 Y90.528 E23.65609
G1 X101.617 Y90.538 E23.69179
G1 X102.195 Y90.563 E23.72143
G1 X104.063 Y90.696 E23.81735
G1 X106.648 Y90.83 E23.94993
G1 X109.181 Y90.89 E24.07971
G1 X111.747 Y90.88 E24.21114
G1 X114.218 Y90.798 E24.33778
G1 X117.856 Y90.558 E24.52452
G1 X118.239 Y90.54 E24.54416
G1 X118.555 Y90.531 E24.56036
G1 X118.829 Y90.527 E24.57439
G1 X119.44 Y90.526 E24.60569
G1 X119.606 Y90.527 E24.61419
G1 X120.291 Y90.537 E24.64928
G1 X121.194 Y90.59 E24.69561
G1 X122.088 Y90.723 E24.74191
G1 X122.967 Y90.934 E24.78821
G1 X123.824 Y91.222 E24.83452
G1 X124.652 Y91.585 E24.88082
G1 X125.445 Y92.019 E24.92713
G1 X126.196 Y92.522 E24.97343
G1 X126.9 Y93.089 E25.01973
G1 X127.551 Y93.716 E25.06602
G1 X128.144 Y94.398 E25.11231
G1 X128.674 Y95.13 E25.1586
G1 X129.138 Y95.906 E25.20491
G1 X129.494 Y96.633 E25.24637
G1 X130.63 Y99.209 E25.39058
G1 X131.135 Y100.325 E25.45332
G1 X131.471 Y101.164 E25.49961
G1 X131.732 Y102.03 E25.54594
G1 X131.915 Y102.915 E25.59223
G1 X132.031 Y104.009 E25.64858
G1 X132.049 Y104.354 E25.66627
G1 X132.063 Y104.888 E25.69364
G1 X132.061 Y117.29 E26.32887
G1 X132.06 Y117.426 E26.33584
G1 X132.053 Y117.943 E26.36232
G1 X132.023 Y118.595 E26.39575
G1 X131.946 Y119.588 E26.44677
G1 X131.914 Y119.927 E26.46421
G1 X131.881 Y120.224 E26.47952
G1 X131.742 Y121.117 E26.52581
G1 X131.59 Y121.761 E26.5597
G1 X131.55 Y121.909 E26.56755
G1 X131.276 Y122.771 E26.61388
G1 X130.927 Y123.605 E26.66019
G1 X130.505 Y124.404 E26.70647
G1 X130.014 Y125.164 E26.75282
G1 X129.459 Y125.877 E26.7991
G1 X128.842 Y126.538 E26.84541
G1 X128.169 Y127.142 E26.89173
G1 X127.446 Y127.684 E26.93801
G1 X126.678 Y128.16 E26.98429
G1 X125.87 Y128.566 E27.03061
G1 X125.03 Y128.9 E27.07691
G1 X124.163 Y129.158 E27.12324
G1 X123.278 Y129.338 E27.1695
G1 X122.032 Y129.457 E27.23361
G1 X121.768 Y129.466 E27.24714
G1 X121.449 Y129.472 E27.26349
G1 X121.098 Y129.473 E27.28147
G1 X120.938 Y129.472 E27.28966
G1 X120.238 Y129.463 E27.32552
G1 X119.387 Y129.417 E27.36917
G1 X118.871 Y129.367 E27.39572
G1 X116.289 Y129.15 E27.52844
G1 X113.748 Y129.008 E27.6588
G1 X111.217 Y128.938 E27.78849
G1 X108.684 Y128.94 E27.91823
G1 X106.117 Y129.014 E28.04977
G1 X103.638 Y129.157 E28.17695
G1 X101.97 Y129.31 E28.26275
G1 X101.84 Y129.321 E28.26943
G1 X100.449 Y129.431 E28.3409
G1 X99.942 Y129.459 E28.36691
G1 X99.6 Y129.469 E28.38443
G1 X99.301 Y129.473 E28.39975
G1 X99.008 Y129.473 E28.41476
G1 X98.877 Y129.472 E28.42147
G1 X98.176 Y129.463 E28.45738
G1 X97.273 Y129.412 E28.5037
G1 X96.379 Y129.28 E28.54999
G1 X95.5 Y129.071 E28.59627
G1 X94.642 Y128.784 E28.64261
G1 X93.813 Y128.423 E28.68892
