;FLAVOR:Marlin
;TIME:348
;Filament used: 0.218123m
;Layer height: 0.28
;MINX:86.46
;MINY:82.91
;MINZ:0.28
;MAXX:133.686
;MAXY:125.04
;MAXZ:5.6
;Generated with Cura_SteamEngine 4.2.1
M140 S50
M105
M190 S50
M104 S200
M105
M109 S200
M82 ;absolute extrusion mode
M201 X500.00 Y500.00 Z100.00 E5000.00 ;Setup machine max acceleration
M203 X500.00 Y500.00 Z10.00 E50.00 ;Setup machine max feedrate
M204 P500.00 R1000.00 T500.00 ;Setup Print/Retract/Travel acceleration
M205 X8.00 Y8.00 Z0.40 E5.00 ;Setup Jerk
M220 S100 ;Reset Feedrate
M221 S100 ;Reset Flowrate

G28 ;Home

G92 E0 ;Reset Extruder
G1 Z2.0 F3000 ;Move Z Axis up
G1 X10.1 Y20 Z0.28 F5000.0 ;Move to start position
G1 X10.1 Y200.0 Z0.28 F1500.0 E15 ;Draw the first line
G1 X10.4 Y200.0 Z0.28 F5000.0 ;Move to side a little
G1 X10.4 Y20 Z0.28 F1500.0 E30 ;Draw the second line
G92 E0 ;Reset Extruder
G1 Z2.0 F3000 ;Move Z Axis up

M141 S28
G92 E0
G92 E0
G1 F2700 E-5
;LAYER_COUNT:20
;LAYER:0
M107
G0 F6000 X89.827 Y86.472 Z0.28
;TYPE:SKIRT
G1 F2700 E0
G1 F1200 X90.52 Y85.807 E0.0492
G1 X91.266 Y85.202 E0.09839
G1 X92.06 Y84.661 E0.1476
G1 X92.896 Y84.188 E0.1968
G1 X93.768 Y83.786 E0.24599
G1 X94.671 Y83.458 E0.29519
G1 X95.598 Y83.206 E0.3444
G1 X96.543 Y83.032 E0.39362
G1 X97.832 Y82.924 E0.45987
G1 X98.152 Y82.915 E0.47627
G1 X98.476 Y82.91 E0.49287
G1 X121.439 Y82.91 E1.66904
G1 X121.604 Y82.911 E1.6775
G1 X122.302 Y82.921 E1.71325
G1 X123.261 Y82.975 E1.76245
G1 X124.213 Y83.108 E1.81169
G1 X125.15 Y83.32 E1.86089
G1 X126.066 Y83.609 E1.91009
G1 X126.955 Y83.974 E1.95931
G1 X127.81 Y84.411 E2.0085
G1 X128.626 Y84.917 E2.05768
G1 X129.397 Y85.49 E2.10688
G1 X130.118 Y86.125 E2.15609
G1 X130.784 Y86.818 E2.20532
G1 X131.39 Y87.563 E2.25451
G1 X131.931 Y88.357 E2.30372
G1 X132.405 Y89.193 E2.35295
G1 X132.807 Y90.065 E2.40213
G1 X133.136 Y90.968 E2.45135
G1 X133.388 Y91.894 E2.50051
G1 X133.563 Y92.839 E2.54974
G1 X133.672 Y94.136 E2.6164
G1 X133.681 Y94.456 E2.6328
G1 X133.686 Y94.78 E2.6494
G1 X133.686 Y97.32 E2.7795
G1 X133.685 Y97.479 E2.78764
G1 X133.675 Y98.203 E2.82473
G1 X133.665 Y98.536 E2.84179
G1 X133.624 Y99.496 E2.89101
G1 X133.616 Y99.668 E2.89983
G1 X133.587 Y100.167 E2.92543
G1 X133.513 Y102.673 E3.05385
G1 X133.509 Y105.223 E3.18446
G1 X133.537 Y106.532 E3.25152
G1 X133.54 Y106.777 E3.26407
G1 X133.54 Y109.357 E3.39622
G1 X133.539 Y109.515 E3.40432
G1 X133.529 Y110.245 E3.44171
G1 X133.476 Y111.204 E3.49091
G1 X133.343 Y112.156 E3.54014
G1 X133.132 Y113.093 E3.58934
G1 X132.843 Y114.009 E3.63853
G1 X132.479 Y114.898 E3.68774
G1 X132.171 Y115.52 E3.72329
G1 X131.79 Y116.234 E3.76474
G1 X131.684 Y116.428 E3.77607
G1 X131.19 Y117.312 E3.82793
G1 X130.815 Y118.032 E3.86952
G1 X130.739 Y118.176 E3.87786
G1 X130.334 Y118.927 E3.92156
G1 X129.779 Y119.85 E3.97672
G1 X129.751 Y119.892 E3.97931
G1 X129.185 Y120.669 E4.02855
G1 X128.557 Y121.395 E4.07772
G1 X127.87 Y122.067 E4.12694
G1 X127.13 Y122.68 E4.17616
G1 X126.342 Y123.229 E4.22535
G1 X125.511 Y123.71 E4.27453
G1 X124.642 Y124.12 E4.32375
G1 X123.742 Y124.457 E4.37297
G1 X122.818 Y124.718 E4.42215
G1 X121.875 Y124.901 E4.47135
G1 X120.474 Y125.026 E4.5434
G1 X120.155 Y125.035 E4.55974
G1 X119.83 Y125.04 E4.57639
G1 X100.547 Y125.04 E5.56408
G1 X100.382 Y125.039 E5.57253
G1 X99.681 Y125.029 E5.60844
G1 X98.722 Y124.975 E5.65764
G1 X97.771 Y124.842 E5.70682
G1 X96.834 Y124.63 E5.75603
G1 X95.918 Y124.341 E5.80523
G1 X95.029 Y123.977 E5.85443
G1 X94.174 Y123.54 E5.90362
G1 X93.357 Y123.033 E5.95287
G1 X92.586 Y122.46 E6.00207
G1 X91.865 Y121.825 E6.05128
G1 X91.2 Y121.133 E6.10044
G1 X90.594 Y120.387 E6.14967
G1 X90.052 Y119.594 E6.19887
G1 X89.619 Y118.835 E6.24362
G1 X89.422 Y118.457 E6.26546
G1 X88.104 Y116.022 E6.40728
G1 X87.937 Y115.723 E6.42482
G1 X87.504 Y114.866 E6.474
G1 X87.143 Y113.976 E6.52319
G1 X86.858 Y113.058 E6.57243
G1 X86.65 Y112.121 E6.62159
G1 X86.521 Y111.169 E6.6708
G1 X86.477 Y110.481 E6.70611
G1 X86.466 Y110.153 E6.72292
G1 X86.46 Y109.766 E6.74274
G1 X86.46 Y107.207 E6.87382
G1 X86.461 Y107.044 E6.88217
G1 X86.471 Y106.338 E6.91833
G1 X86.481 Y106.008 E6.93524
G1 X86.522 Y105.049 E6.98441
G1 X86.53 Y104.878 E6.99318
G1 X86.559 Y104.379 E7.01878
G1 X86.633 Y101.873 E7.14719
G1 X86.637 Y99.323 E7.27781
G1 X86.609 Y98.014 E7.34487
G1 X86.606 Y97.769 E7.35742
G1 X86.606 Y95.124 E7.4929
G1 X86.607 Y94.95 E7.50181
G1 X86.617 Y94.285 E7.53588
G1 X86.672 Y93.326 E7.58508
G1 X86.806 Y92.375 E7.63427
G1 X87.018 Y91.438 E7.68348
G1 X87.308 Y90.523 E7.73264
G1 X87.673 Y89.634 E7.78186
G1 X88.111 Y88.779 E7.83107
G1 X88.618 Y87.963 E7.88028
G1 X89.191 Y87.192 E7.92948
G1 X89.827 Y86.472 E7.97869
G0 F6000 X90.258 Y86.659
G1 F1200 X90.948 Y86.018 E8.02692
G1 X91.69 Y85.437 E8.07519
G1 X92.478 Y84.921 E8.12344
G1 X93.308 Y84.474 E8.17173
G1 X94.172 Y84.099 E8.21997
G1 X95.065 Y83.798 E8.26824
G1 X95.98 Y83.574 E8.31649
G1 X96.911 Y83.429 E8.36475
G1 X97.844 Y83.363 E8.41266
G1 X98.164 Y83.354 E8.42906
G1 X98.476 Y83.35 E8.44504
G1 X121.439 Y83.35 E9.62122
G1 X121.598 Y83.351 E9.62936
G1 X122.296 Y83.361 E9.66512
G1 X123.237 Y83.415 E9.71339
G1 X124.169 Y83.548 E9.76162
G1 X125.087 Y83.759 E9.80986
G1 X125.984 Y84.048 E9.85813
G1 X126.853 Y84.412 E9.90639
G1 X127.688 Y84.848 E9.95464
G1 X128.483 Y85.353 E10.00288
G1 X129.233 Y85.924 E10.05116
G1 X129.931 Y86.557 E10.09943
G1 X130.573 Y87.246 E10.14766
G1 X131.155 Y87.987 E10.19593
G1 X131.671 Y88.775 E10.24417
G1 X132.119 Y89.604 E10.29244
G1 X132.494 Y90.468 E10.34068
G1 X132.796 Y91.361 E10.38896
G1 X133.02 Y92.276 E10.43722
G1 X133.166 Y93.207 E10.48548
G1 X133.233 Y94.148 E10.5338
G1 X133.242 Y94.468 E10.5502
G1 X133.246 Y94.78 E10.56618
G1 X133.246 Y97.32 E10.69628
G1 X133.245 Y97.473 E10.70412
G1 X133.235 Y98.197 E10.74121
G1 X133.226 Y98.518 E10.75766
G1 X133.185 Y99.478 E10.80687
G1 X133.177 Y99.643 E10.81533
G1 X133.147 Y100.165 E10.84212
G1 X133.073 Y102.659 E10.96992
G1 X133.069 Y105.231 E11.10166
G1 X133.097 Y106.541 E11.16877
G1 X133.1 Y106.777 E11.18086
G1 X133.1 Y109.357 E11.31301
G1 X133.099 Y109.509 E11.32079
G1 X133.089 Y110.239 E11.35819
G1 X133.036 Y111.18 E11.40646
G1 X132.904 Y112.112 E11.45468
G1 X132.693 Y113.031 E11.50297
G1 X132.404 Y113.928 E11.55124
G1 X132.041 Y114.797 E11.59948
G1 X131.783 Y115.313 E11.62903
G1 X131.402 Y116.027 E11.67048
G1 X131.3 Y116.213 E11.68135
G1 X130.81 Y117.09 E11.73281
G1 X130.425 Y117.829 E11.77549
G1 X130.352 Y117.967 E11.78348
G1 X129.947 Y118.718 E11.82719
G1 X129.413 Y119.606 E11.88026
G1 X129.385 Y119.648 E11.88285
G1 X128.829 Y120.409 E11.93112
G1 X128.211 Y121.12 E11.97937
G1 X127.535 Y121.777 E12.02766
G1 X126.806 Y122.373 E12.07589
G1 X126.029 Y122.906 E12.12415
G1 X125.209 Y123.37 E12.17241
G1 X124.354 Y123.764 E12.22063
G1 X123.467 Y124.083 E12.26891
G1 X122.557 Y124.327 E12.31717
G1 X121.63 Y124.492 E12.3654
G1 X120.462 Y124.587 E12.42542
G1 X120.143 Y124.596 E12.44177
G1 X119.83 Y124.6 E12.4578
G1 X100.547 Y124.6 E13.44549
G1 X100.389 Y124.599 E13.45358
G1 X99.688 Y124.589 E13.48949
G1 X98.747 Y124.535 E13.53777
G1 X97.814 Y124.402 E13.58604
G1 X96.896 Y124.191 E13.63428
G1 X96 Y123.902 E13.68251
G1 X95.13 Y123.539 E13.73079
G1 X94.295 Y123.102 E13.77906
G1 X93.5 Y122.597 E13.82731
G1 X92.751 Y122.026 E13.87555
G1 X92.052 Y121.394 E13.92381
G1 X91.41 Y120.704 E13.97209
G1 X90.829 Y119.963 E14.02032
G1 X90.312 Y119.175 E14.06859
G1 X90.009 Y118.631 E14.10049
G1 X89.829 Y118.286 E14.12042
G1 X88.497 Y115.824 E14.2638
G1 X88.321 Y115.509 E14.28228
G1 X87.897 Y114.668 E14.33052
G1 X87.546 Y113.793 E14.37881
G1 X87.27 Y112.893 E14.42703
G1 X87.071 Y111.972 E14.47529
G1 X86.951 Y111.037 E14.52357
G1 X86.917 Y110.466 E14.55287
G1 X86.906 Y110.138 E14.56968
G1 X86.9 Y109.766 E14.58874
G1 X86.9 Y107.207 E14.71981
G1 X86.901 Y107.05 E14.72785
G1 X86.911 Y106.344 E14.76402
G1 X86.92 Y106.027 E14.78026
G1 X86.961 Y105.068 E14.82943
G1 X86.969 Y104.903 E14.83789
G1 X86.999 Y104.381 E14.86467
G1 X87.073 Y101.887 E14.99247
G1 X87.077 Y99.315 E15.12421
G1 X87.049 Y98.005 E15.19133
G1 X87.046 Y97.769 E15.20341
G1 X87.046 Y95.124 E15.33889
G1 X87.047 Y94.957 E15.34745
G1 X87.057 Y94.292 E15.38151
G1 X87.111 Y93.352 E15.42974
G1 X87.245 Y92.419 E15.47802
G1 X87.457 Y91.501 E15.52628
G1 X87.747 Y90.604 E15.57456
G1 X88.111 Y89.736 E15.62277
G1 X88.548 Y88.901 E15.67105
G1 X89.054 Y88.106 E15.71931
G1 X89.625 Y87.357 E15.76756
G1 X90.258 Y86.659 E15.81582
G0 F6000 X90.689 Y86.851
G1 F1200 X91.375 Y86.233 E15.86311
G1 X92.113 Y85.678 E15.91041
G1 X92.895 Y85.188 E15.95768
G1 X93.717 Y84.767 E16.00498
G1 X94.572 Y84.419 E16.05226
G1 X95.455 Y84.147 E16.09959
G1 X96.357 Y83.952 E16.14686
G1 X97.273 Y83.836 E16.19415
G1 X97.856 Y83.803 E16.22406
G1 X98.176 Y83.794 E16.24046
G1 X98.476 Y83.79 E16.25582
G1 X121.439 Y83.79 E17.432
G1 X121.592 Y83.791 E17.43984
G1 X122.29 Y83.801 E17.4756
G1 X123.211 Y83.854 E17.52285
G1 X124.125 Y83.987 E17.57016
G1 X125.024 Y84.198 E17.61746
G1 X125.901 Y84.487 E17.66475
G1 X126.75 Y84.85 E17.71205
G1 X127.564 Y85.285 E17.75932
G1 X128.338 Y85.789 E17.80663
G1 X129.065 Y86.358 E17.85392
G1 X129.74 Y86.988 E17.90121
G1 X130.358 Y87.674 E17.9485
G1 X130.914 Y88.41 E17.99575
G1 X131.405 Y89.193 E18.04309
G1 X131.826 Y90.014 E18.09035
G1 X132.174 Y90.869 E18.13763
G1 X132.447 Y91.751 E18.18492
G1 X132.643 Y92.653 E18.2322
G1 X132.76 Y93.569 E18.2795
G1 X132.793 Y94.16 E18.30982
G1 X132.802 Y94.48 E18.32621
G1 X132.806 Y94.78 E18.34158
G1 X132.806 Y97.32 E18.47168
G1 X132.805 Y97.467 E18.47921
G1 X132.795 Y98.191 E18.5163
G1 X132.786 Y98.499 E18.53208
G1 X132.745 Y99.459 E18.5813
G1 X132.737 Y99.618 E18.58945
G1 X132.708 Y100.128 E18.61562
G1 X132.633 Y102.645 E18.7446
G1 X132.629 Y105.195 E18.87521
G1 X132.658 Y106.55 E18.94463
G1 X132.66 Y106.777 E18.95626
G1 X132.66 Y109.357 E19.0884
G1 X132.659 Y109.503 E19.09588
G1 X132.649 Y110.233 E19.13328
G1 X132.596 Y111.155 E19.18058
G1 X132.464 Y112.069 E19.22788
G1 X132.253 Y112.967 E19.27513
G1 X131.966 Y113.845 E19.32244
G1 X131.395 Y115.106 E19.39335
G1 X131.014 Y115.82 E19.4348
G1 X130.916 Y115.999 E19.44525
G1 X130.414 Y116.898 E19.49799
G1 X130.035 Y117.625 E19.53999
G1 X129.965 Y117.758 E19.54768
G1 X129.56 Y118.509 E19.59139
G1 X129.047 Y119.362 E19.64237
G1 X129.019 Y119.404 E19.64496
G1 X128.474 Y120.149 E19.69224
G1 X127.866 Y120.845 E19.73957
G1 X127.201 Y121.485 E19.78685
G1 X126.483 Y122.065 E19.83412
G1 X125.717 Y122.581 E19.88143
G1 X124.91 Y123.029 E19.92871
G1 X124.067 Y123.405 E19.97599
G1 X123.194 Y123.707 E20.0233
G1 X122.299 Y123.932 E20.07057
G1 X121.387 Y124.079 E20.11789
G1 X120.45 Y124.147 E20.16601
G1 X120.131 Y124.156 E20.18235
G1 X119.83 Y124.16 E20.19777
G1 X100.547 Y124.16 E21.18546
G1 X100.395 Y124.159 E21.19324
G1 X99.694 Y124.149 E21.22915
G1 X98.772 Y124.096 E21.27646
G1 X97.859 Y123.963 E21.32372
G1 X96.96 Y123.752 E21.37101
G1 X96.083 Y123.464 E21.41829
G1 X95.234 Y123.101 E21.46559
G1 X94.42 Y122.665 E21.51289
G1 X93.646 Y122.161 E21.5602
G1 X92.919 Y121.592 E21.60748
G1 X92.244 Y120.963 E21.65474
G1 X91.626 Y120.277 E21.70203
G1 X91.069 Y119.54 E21.74935
G1 X90.398 Y118.428 E21.81587
G1 X90.144 Y117.942 E21.84396
G1 X88.89 Y115.626 E21.97886
G1 X88.705 Y115.294 E21.99833
G1 X88.29 Y114.469 E22.04563
G1 X87.948 Y113.612 E22.09289
G1 X87.682 Y112.728 E22.14018
G1 X87.492 Y111.824 E22.18749
G1 X87.357 Y110.451 E22.25816
G1 X87.346 Y110.123 E22.27497
G1 X87.34 Y109.766 E22.29326
G1 X87.34 Y107.207 E22.42433
G1 X87.341 Y107.056 E22.43206
G1 X87.351 Y106.35 E22.46823
G1 X87.36 Y106.046 E22.48381
G1 X87.401 Y105.087 E22.53297
G1 X87.409 Y104.928 E22.54113
G1 X87.438 Y104.418 E22.56729
G1 X87.513 Y101.901 E22.69627
G1 X87.517 Y99.351 E22.82688
G1 X87.488 Y97.996 E22.8963
G1 X87.486 Y97.769 E22.90793
G1 X87.486 Y95.124 E23.04341
G1 X87.487 Y94.964 E23.05161
G1 X87.497 Y94.299 E23.08567
G1 X87.551 Y93.377 E23.13298
G1 X87.684 Y92.463 E23.18029
G1 X87.896 Y91.565 E23.22755
G1 X88.185 Y90.688 E23.27484
G1 X88.549 Y89.839 E23.32216
G1 X88.985 Y89.025 E23.36946
G1 X89.489 Y88.252 E23.41672
G1 X90.059 Y87.526 E23.464
G1 X90.689 Y86.851 E23.51129
G0 F6000 X90.492 Y87.698
G1 F1200 X91.12 Y87.047 E23.55762
G1 X91.802 Y86.454 E23.60391
G1 X92.534 Y85.924 E23.6502
G1 X93.31 Y85.461 E23.69649
G1 X94.124 Y85.068 E23.74279
G1 X94.97 Y84.748 E23.78912
G1 X95.841 Y84.505 E23.83543
G1 X96.729 Y84.339 E23.8817
G1 X97.869 Y84.243 E23.9403
G1 X98.189 Y84.234 E23.9567
G1 X98.476 Y84.23 E23.9714
G1 X121.439 Y84.23 E25.14758
G1 X121.585 Y84.231 E25.15506
G1 X122.283 Y84.241 E25.19081
G1 X123.186 Y84.294 E25.23715
G1 X124.08 Y84.426 E25.28343
G1 X124.959 Y84.637 E25.32974
G1 X125.816 Y84.925 E25.37604
G1 X126.644 Y85.288 E25.42235
G1 X127.437 Y85.722 E25.46865
G1 X128.189 Y86.224 E25.51497
G1 X128.893 Y86.791 E25.56127
G1 X129.544 Y87.418 E25.60756
G1 X130.137 Y88.1 E25.65385
G1 X130.668 Y88.832 E25.70017
G1 X131.132 Y89.608 E25.74648
G1 X131.525 Y90.422 E25.79278
G1 X131.845 Y91.267 E25.83906
G1 X132.09 Y92.138 E25.88541
G1 X132.256 Y93.026 E25.93168
G1 X132.353 Y94.173 E25.99064
G1 X132.362 Y94.493 E26.00704
G1 X132.366 Y94.78 E26.02174
G1 X132.366 Y97.32 E26.15184
G1 X132.365 Y97.461 E26.15906
G1 X132.355 Y98.185 E26.19615
G1 X132.347 Y98.48 E26.21126
G1 X132.306 Y99.44 E26.26048
G1 X132.298 Y99.592 E26.26828
G1 X132.267 Y100.124 E26.29557
G1 X132.193 Y102.632 E26.42409
G1 X132.189 Y105.205 E26.55588
G1 X132.218 Y106.56 E26.6253
G1 X132.22 Y106.777 E26.63641
G1 X132.22 Y109.357 E26.76856
G1 X132.219 Y109.497 E26.77574
G1 X132.209 Y110.227 E26.81313
G1 X132.157 Y111.129 E26.85941
G1 X132.025 Y112.024 E26.90575
G1 X131.814 Y112.903 E26.95205
G1 X131.527 Y113.76 E26.99834
G1 X131.007 Y114.898 E27.06243
G1 X130.626 Y115.612 E27.10388
G1 X130.532 Y115.784 E27.11392
G1 X130.034 Y116.676 E27.16625
G1 X129.645 Y117.422 E27.20934
G1 X129.577 Y117.549 E27.21672
G1 X129.172 Y118.3 E27.26042
G1 X128.681 Y119.118 E27.30929
G1 X128.653 Y119.16 E27.31187
G1 X128.118 Y119.889 E27.35819
G1 X127.522 Y120.568 E27.40447
G1 X126.868 Y121.192 E27.45077
G1 X126.161 Y121.756 E27.49709
G1 X125.407 Y122.255 E27.5434
G1 X124.612 Y122.685 E27.5897
G1 X123.782 Y123.043 E27.636
G1 X122.924 Y123.327 E27.68229
G1 X122.044 Y123.534 E27.72859
G1 X121.149 Y123.662 E27.7749
G1 X120.437 Y123.707 E27.81144
G1 X120.118 Y123.716 E27.82779
G1 X119.83 Y123.72 E27.84254
G1 X100.547 Y123.72 E28.83023
G1 X100.401 Y123.719 E28.83771
G1 X99.7 Y123.709 E28.87362
G1 X98.798 Y123.656 E28.9199
G1 X97.904 Y123.524 E28.96619
G1 X97.024 Y123.313 E29.01254
G1 X96.168 Y123.025 E29.0588
G1 X95.339 Y122.663 E29.10513
G1 X94.546 Y122.229 E29.15143
G1 X93.795 Y121.726 E29.19773
G1 X93.091 Y121.159 E29.24403
G1 X92.44 Y120.532 E29.29033
G1 X91.846 Y119.85 E29.33665
G1 X91.315 Y119.118 E29.38297
G1 X90.788 Y118.224 E29.43613
G1 X90.556 Y117.781 E29.46174
G1 X89.253 Y115.372 E29.60202
G1 X89.09 Y115.08 E29.61915
G1 X88.684 Y114.272 E29.66547
G1 X88.351 Y113.431 E29.7118
G1 X88.094 Y112.564 E29.75812
G1 X87.915 Y111.678 E29.80442
G1 X87.797 Y110.437 E29.86827
G1 X87.786 Y110.109 E29.88508
G1 X87.78 Y109.766 E29.90265
G1 X87.78 Y107.207 E30.03372
G1 X87.781 Y107.062 E30.04115
G1 X87.791 Y106.356 E30.07732
G1 X87.799 Y106.064 E30.09228
G1 X87.84 Y105.105 E30.14144
G1 X87.848 Y104.954 E30.14919
G1 X87.879 Y104.422 E30.17648
G1 X87.953 Y101.914 E30.305
G1 X87.957 Y99.341 E30.43679
G1 X87.928 Y97.986 E30.50621
G1 X87.926 Y97.769 E30.51733
G1 X87.926 Y95.124 E30.65281
G1 X87.927 Y94.97 E30.66069
G1 X87.937 Y94.305 E30.69476
G1 X87.991 Y93.403 E30.74104
G1 X88.124 Y92.509 E30.78734
G1 X88.335 Y91.63 E30.83364
G1 X88.624 Y90.773 E30.87996
G1 X88.987 Y89.945 E30.92627
G1 X89.422 Y89.153 E30.97255
G1 X89.925 Y88.402 E31.01885
G1 X90.492 Y87.698 E31.06515
G1 F2700 E26.06515
;MESH:cableChain_linkCover_v2.stl(1)
G0 F6000 X97.493 Y98.699
G0 X99.321 Y100.79
G0 X100.646 Y100.79
;TYPE:WALL-INNER
G1 F2700 E31.06515
G1 F1200 X100.646 Y97.386 E31.23951
G1 X98.806 Y97.386 E31.33375
G1 X98.806 Y95.11 E31.45033
G1 X121.486 Y95.11 E32.61202
G1 X121.486 Y97.386 E32.72859
G1 X119.646 Y97.386 E32.82284
G1 X119.646 Y100.79 E32.99719
G1 X100.646 Y100.79 E33.97039
G0 F6000 X100.206 Y101.23
